;FLAVOR:Marlin
;TIME:399
;Filament used: 0.163009m
;Layer height: 0.2
;MINX:92.527
;MINY:92.408
;MINZ:0.2
;MAXX:132.392
;MAXY:127.592
;MAXZ:3.4
;Generated with Cura_SteamEngine 4.10.0
M140 S60
M105
M190 S60
M104 S200
M105
M109 S200
M82 ;absolute extrusion mode
; Ender 3 Custom Start G-code
G92 E0 ; Reset Extruder
G28 ; Home all axes
G1 Z2.0 F3000 ; Move Z Axis up little to prevent scratching of Heat Bed
G1 X0.1 Y20 Z0.3 F5000.0 ; Move to start position
G1 X0.1 Y200.0 Z0.3 F1500.0 E15 ; Draw the first line
G1 X0.4 Y200.0 Z0.3 F5000.0 ; Move to side a little
G1 X0.4 Y20 Z0.3 F1500.0 E30 ; Draw the second line
G92 E0 ; Reset Extruder
G1 Z2.0 F3000 ; Move Z Axis up little to prevent scratching of Heat Bed
G1 X5 Y20 Z0.3 F5000.0 ; Move over to prevent blob squish
G92 E0
G92 E0
G1 F7500 E-6.5
;LAYER_COUNT:18
;LAYER:0
M107
G0 F6000 X95.723 Y95.674 Z0.2
;TYPE:SKIRT
G1 F7500 E0
G1 F1200 X96.411 Y95.036 E0.03121
G1 X97.151 Y94.46 E0.0624
G1 X97.937 Y93.949 E0.09358
G1 X98.764 Y93.506 E0.12478
G1 X99.625 Y93.136 E0.15595
G1 X100.516 Y92.84 E0.18718
G1 X101.427 Y92.621 E0.21834
G1 X102.355 Y92.481 E0.24956
G1 X103.228 Y92.421 E0.27866
G1 X103.549 Y92.412 E0.28934
G1 X103.857 Y92.408 E0.29959
G1 X115.766 Y92.408 E0.69568
G1 X116.625 Y92.419 E0.72426
G1 X116.934 Y92.428 E0.73454
G1 X117.266 Y92.442 E0.74559
G1 X119.944 Y92.518 E0.8347
G1 X120.369 Y92.521 E0.84883
G1 X121.542 Y92.538 E0.88785
G1 X122.479 Y92.592 E0.91907
G1 X123.407 Y92.725 E0.95025
G1 X124.321 Y92.937 E0.98145
G1 X125.213 Y93.225 E1.01263
G1 X126.078 Y93.589 E1.04384
G1 X126.908 Y94.025 E1.07503
G1 X127.698 Y94.53 E1.10621
G1 X128.442 Y95.101 E1.13741
G1 X129.135 Y95.733 E1.1686
G1 X129.772 Y96.422 E1.19981
G1 X130.347 Y97.162 E1.23098
G1 X130.858 Y97.949 E1.26219
G1 X131.299 Y98.776 E1.29336
G1 X131.669 Y99.638 E1.32456
G1 X131.964 Y100.529 E1.35578
G1 X132.181 Y101.441 E1.38696
G1 X132.321 Y102.368 E1.41814
G1 X132.378 Y103.22 E1.44654
G1 X132.387 Y103.532 E1.45692
G1 X132.392 Y103.849 E1.46747
G1 X132.391 Y115.873 E1.86739
G1 X132.382 Y116.6 E1.89157
G1 X132.331 Y117.537 E1.92278
G1 X132.199 Y118.465 E1.95396
G1 X131.99 Y119.379 E1.98514
G1 X131.703 Y120.272 E2.01634
G1 X131.341 Y121.138 E2.04756
G1 X130.907 Y121.969 E2.07874
G1 X130.403 Y122.76 E2.10993
G1 X129.834 Y123.505 E2.14111
G1 X129.203 Y124.2 E2.17233
G1 X128.516 Y124.838 E2.20352
G1 X127.777 Y125.415 E2.2347
G1 X126.991 Y125.927 E2.2659
G1 X126.165 Y126.37 E2.29708
G1 X125.303 Y126.742 E2.3283
G1 X124.414 Y127.038 E2.35947
G1 X123.502 Y127.258 E2.39067
G1 X122.575 Y127.399 E2.42186
G1 X121.686 Y127.46 E2.45149
G1 X121.169 Y127.472 E2.46869
G1 X118.721 Y127.51 E2.55012
G1 X117.85 Y127.546 E2.57912
G1 X116.469 Y127.587 E2.62507
G1 X116.143 Y127.592 E2.63591
G1 X104.076 Y127.591 E3.03727
G1 X103.378 Y127.581 E3.06048
G1 X102.442 Y127.527 E3.09167
G1 X101.514 Y127.395 E3.12284
G1 X100.6 Y127.183 E3.15405
G1 X99.708 Y126.894 E3.18524
G1 X98.843 Y126.531 E3.21644
G1 X98.013 Y126.095 E3.24762
G1 X97.222 Y125.59 E3.27883
G1 X96.478 Y125.019 E3.31003
G1 X95.785 Y124.387 E3.34122
G1 X95.148 Y123.699 E3.37241
G1 X94.573 Y122.958 E3.4036
G1 X94.062 Y122.172 E3.43478
G1 X93.62 Y121.344 E3.466
G1 X93.251 Y120.482 E3.49719
G1 X92.956 Y119.592 E3.52837
G1 X92.738 Y118.68 E3.55956
G1 X92.598 Y117.752 E3.59077
G1 X92.54 Y116.88 E3.61984
G1 X92.531 Y116.548 E3.63089
G1 X92.527 Y116.25 E3.6408
G1 X92.527 Y113.43 E3.73459
G1 X92.532 Y112.072 E3.77976
G1 X92.527 Y111.356 E3.80358
G1 X92.527 Y108.53 E3.89757
G1 X92.532 Y107.172 E3.94274
G1 X92.527 Y106.456 E3.96655
G1 X92.528 Y103.945 E4.05007
G1 X92.537 Y103.27 E4.07252
G1 X92.589 Y102.334 E4.1037
G1 X92.721 Y101.405 E4.13491
G1 X92.932 Y100.492 E4.16608
G1 X93.22 Y99.599 E4.19728
G1 X93.583 Y98.734 E4.22848
G1 X94.018 Y97.903 E4.25968
G1 X94.522 Y97.112 E4.29088
G1 X95.092 Y96.367 E4.32208
G1 X95.723 Y95.674 E4.35325
G0 F6000 X96.115 Y95.848
G1 F1200 X96.8 Y95.233 E4.38387
G1 X97.535 Y94.679 E4.41448
G1 X98.316 Y94.191 E4.44511
G1 X99.136 Y93.773 E4.47572
G1 X99.99 Y93.428 E4.50636
G1 X100.87 Y93.158 E4.53697
G1 X101.77 Y92.965 E4.56759
G1 X102.684 Y92.851 E4.59822
G1 X103.239 Y92.821 E4.61671
G1 X103.56 Y92.812 E4.62739
G1 X103.857 Y92.808 E4.63727
G1 X115.766 Y92.808 E5.03336
G1 X116.62 Y92.819 E5.06177
G1 X116.917 Y92.827 E5.07165
G1 X117.308 Y92.844 E5.08467
G1 X119.93 Y92.918 E5.17191
G1 X120.364 Y92.921 E5.18635
G1 X121.537 Y92.938 E5.22537
G1 X122.456 Y92.991 E5.25598
G1 X123.367 Y93.124 E5.2866
G1 X124.263 Y93.336 E5.31723
G1 X125.137 Y93.624 E5.34783
G1 X125.983 Y93.987 E5.37845
G1 X126.794 Y94.422 E5.40906
G1 X127.565 Y94.926 E5.4397
G1 X128.289 Y95.495 E5.47033
G1 X128.961 Y96.125 E5.50096
G1 X129.575 Y96.81 E5.53156
G1 X130.128 Y97.546 E5.56218
G1 X130.615 Y98.328 E5.59282
G1 X131.032 Y99.149 E5.62345
G1 X131.376 Y100.002 E5.65404
G1 X131.645 Y100.883 E5.68467
G1 X131.837 Y101.783 E5.71528
G1 X131.95 Y102.697 E5.74591
G1 X131.979 Y103.231 E5.7637
G1 X131.988 Y103.543 E5.77408
G1 X131.992 Y103.849 E5.78426
G1 X131.991 Y115.868 E6.18401
G1 X131.982 Y116.595 E6.2082
G1 X131.931 Y117.514 E6.23881
G1 X131.8 Y118.426 E6.26945
G1 X131.59 Y119.322 E6.30006
G1 X131.304 Y120.197 E6.33068
G1 X130.943 Y121.044 E6.3613
G1 X130.509 Y121.856 E6.39193
G1 X130.007 Y122.628 E6.42255
G1 X129.439 Y123.353 E6.45319
G1 X128.811 Y124.026 E6.4838
G1 X128.127 Y124.642 E6.51442
G1 X127.392 Y125.196 E6.54503
G1 X126.612 Y125.685 E6.57565
G1 X125.792 Y126.104 E6.60628
G1 X124.939 Y126.45 E6.63689
G1 X124.059 Y126.721 E6.66752
G1 X123.159 Y126.914 E6.69813
G1 X122.245 Y127.029 E6.72877
G1 X121.675 Y127.06 E6.74776
G1 X121.165 Y127.072 E6.76473
G1 X118.697 Y127.11 E6.84682
G1 X117.839 Y127.146 E6.87539
G1 X116.458 Y127.187 E6.92134
G1 X116.143 Y127.192 E6.93182
G1 X104.082 Y127.191 E7.33297
G1 X103.384 Y127.181 E7.35619
G1 X102.465 Y127.128 E7.3868
G1 X101.554 Y126.995 E7.41742
G1 X100.658 Y126.784 E7.44804
G1 X99.784 Y126.496 E7.47865
G1 X98.937 Y126.133 E7.5093
G1 X98.126 Y125.698 E7.5399
G1 X97.356 Y125.194 E7.57051
G1 X96.632 Y124.625 E7.60114
G1 X95.96 Y123.995 E7.63178
G1 X95.345 Y123.31 E7.6624
G1 X94.792 Y122.574 E7.69302
G1 X94.305 Y121.793 E7.72363
G1 X93.888 Y120.972 E7.75425
G1 X93.543 Y120.118 E7.78489
G1 X93.274 Y119.238 E7.81549
G1 X93.082 Y118.337 E7.84614
G1 X92.969 Y117.424 E7.87673
G1 X92.94 Y116.869 E7.89522
G1 X92.931 Y116.537 E7.90626
G1 X92.927 Y116.25 E7.91581
G1 X92.927 Y113.431 E8.00957
G1 X92.932 Y112.069 E8.05487
G1 X92.927 Y111.353 E8.07869
G1 X92.927 Y108.531 E8.17255
G1 X92.932 Y107.169 E8.21785
G1 X92.927 Y106.453 E8.24166
G1 X92.928 Y103.951 E8.32488
G1 X92.937 Y103.276 E8.34733
G1 X92.989 Y102.357 E8.37795
G1 X93.121 Y101.445 E8.4086
G1 X93.331 Y100.549 E8.4392
G1 X93.619 Y99.674 E8.46984
G1 X93.981 Y98.828 E8.50045
G1 X94.415 Y98.016 E8.53107
G1 X94.918 Y97.245 E8.56169
G1 X95.486 Y96.521 E8.5923
G1 X96.115 Y95.848 E8.62294
G0 F6000 X96.506 Y96.026
G1 F1200 X97.188 Y95.433 E8.65299
G1 X97.919 Y94.903 E8.68303
G1 X98.694 Y94.44 E8.71305
G1 X99.507 Y94.046 E8.7431
G1 X100.352 Y93.727 E8.77314
G1 X101.221 Y93.483 E8.80316
G1 X102.109 Y93.317 E8.83321
G1 X103.25 Y93.221 E8.87129
G1 X103.571 Y93.212 E8.88197
G1 X103.857 Y93.208 E8.89149
G1 X115.766 Y93.208 E9.28758
G1 X116.614 Y93.219 E9.31579
G1 X116.9 Y93.227 E9.3253
G1 X117.279 Y93.243 E9.33792
G1 X119.917 Y93.318 E9.4257
G1 X120.358 Y93.321 E9.44036
G1 X121.531 Y93.338 E9.47938
G1 X122.432 Y93.391 E9.5094
G1 X123.326 Y93.524 E9.53946
G1 X124.204 Y93.735 E9.5695
G1 X125.06 Y94.023 E9.59954
G1 X125.887 Y94.385 E9.62956
G1 X126.679 Y94.819 E9.6596
G1 X127.429 Y95.322 E9.68964
G1 X128.132 Y95.889 E9.71968
G1 X128.782 Y96.516 E9.74971
G1 X129.374 Y97.198 E9.77975
G1 X129.903 Y97.93 E9.80979
G1 X130.366 Y98.705 E9.83982
G1 X130.758 Y99.519 E9.86987
G1 X131.077 Y100.364 E9.89991
G1 X131.32 Y101.234 E9.92995
G1 X131.484 Y102.122 E9.95998
G1 X131.579 Y103.243 E9.9974
G1 X131.588 Y103.555 E10.00778
G1 X131.592 Y103.849 E10.01756
G1 X131.591 Y115.863 E10.41715
G1 X131.582 Y116.59 E10.44133
G1 X131.531 Y117.492 E10.47138
G1 X131.4 Y118.386 E10.50143
G1 X131.191 Y119.264 E10.53145
G1 X130.905 Y120.121 E10.5615
G1 X130.544 Y120.949 E10.59154
G1 X130.112 Y121.741 E10.62155
G1 X129.611 Y122.493 E10.6516
G1 X129.045 Y123.197 E10.68165
G1 X128.42 Y123.848 E10.71166
G1 X127.739 Y124.442 E10.74172
G1 X127.008 Y124.973 E10.77177
G1 X126.234 Y125.437 E10.80179
G1 X125.421 Y125.831 E10.83183
G1 X124.577 Y126.151 E10.86186
G1 X123.707 Y126.396 E10.89192
G1 X122.82 Y126.562 E10.92193
G1 X121.664 Y126.66 E10.96052
G1 X121.161 Y126.672 E10.97725
G1 X118.712 Y126.71 E11.05872
G1 X117.827 Y126.747 E11.08818
G1 X116.446 Y126.788 E11.13413
G1 X116.143 Y126.792 E11.14421
G1 X104.088 Y126.791 E11.54516
G1 X103.39 Y126.781 E11.56838
G1 X102.488 Y126.728 E11.59843
G1 X101.595 Y126.596 E11.62845
G1 X100.717 Y126.385 E11.65849
G1 X99.861 Y126.097 E11.68853
G1 X99.034 Y125.735 E11.71855
G1 X98.242 Y125.3 E11.74861
G1 X97.491 Y124.798 E11.77865
G1 X96.788 Y124.231 E11.80869
G1 X96.138 Y123.604 E11.83873
G1 X95.546 Y122.922 E11.86877
G1 X95.016 Y122.191 E11.8988
G1 X94.554 Y121.415 E11.92883
G1 X94.161 Y120.602 E11.95887
G1 X93.843 Y119.757 E11.9889
G1 X93.6 Y118.887 E12.01894
G1 X93.435 Y117.999 E12.04898
G1 X93.34 Y116.858 E12.08706
G1 X93.331 Y116.526 E12.09811
G1 X93.327 Y116.25 E12.10729
G1 X93.327 Y113.432 E12.20102
G1 X93.332 Y112.066 E12.24645
G1 X93.327 Y111.35 E12.27027
G1 X93.327 Y108.532 E12.36399
G1 X93.332 Y107.166 E12.40943
G1 X93.327 Y106.45 E12.43324
G1 X93.328 Y103.956 E12.51619
G1 X93.337 Y103.281 E12.53864
G1 X93.389 Y102.379 E12.5687
G1 X93.52 Y101.486 E12.59871
G1 X93.731 Y100.608 E12.62875
G1 X94.017 Y99.751 E12.6588
G1 X94.379 Y98.924 E12.68882
G1 X94.812 Y98.131 E12.71887
G1 X95.314 Y97.38 E12.74892
G1 X95.88 Y96.677 E12.77894
G1 X96.506 Y96.026 E12.80898
G1 F7500 E6.30898
;MESH:Clip 1.stl(2)
G0 F6000 X103.115 Y102.997
G0 X103.941 Y103.822
G0 X115.691 Y104.19
G0 X115.873 Y106.192
;TYPE:WALL-INNER
G1 F7500 E12.80898
G1 F1200 X104.127 Y106.192 E13.19965
G1 X104.127 Y104.008 E13.27229
G1 X115.873 Y104.008 E13.66296
G1 X115.873 Y106.192 E13.7356
G0 F6000 X116.273 Y106.592
;TYPE:WALL-OUTER
G1 F1200 X103.727 Y106.592 E14.15289
G1 X103.727 Y103.608 E14.25213
G1 X116.273 Y103.608 E14.66942
G1 X116.273 Y106.592 E14.76866
G0 F6000 X116.003 Y106.322
G0 X115.763 Y105.802
G0 X115.483 Y105.802
;TYPE:SKIN
G1 F1200 X104.517 Y105.802 E15.13339
G1 X104.517 Y104.398 E15.18009
G1 X115.483 Y104.398 E15.54482
G1 X115.483 Y105.802 E15.59152
G0 F6000 X115.322 Y105.14
G1 F1200 X114.74 Y104.557 E15.61892
G0 F6000 X114.174 Y104.557
G1 F1200 X115.257 Y105.641 E15.66988
G0 F6000 X114.692 Y105.641
G1 F1200 X113.608 Y104.557 E15.72087
G0 F6000 X113.043 Y104.557
G1 F1200 X114.126 Y105.641 E15.77184
G0 F6000 X113.56 Y105.641
G1 F1200 X112.477 Y104.557 E15.8228
G0 F6000 X111.911 Y104.557
G1 F1200 X112.994 Y105.641 E15.87376
G0 F6000 X112.429 Y105.641
G1 F1200 X111.345 Y104.557 E15.92475
G0 F6000 X110.78 Y104.557
G1 F1200 X111.863 Y105.641 E15.97572
G0 F6000 X111.297 Y105.641
G1 F1200 X110.214 Y104.557 E16.02668
G0 F6000 X109.648 Y104.557
G1 F1200 X110.732 Y105.641 E16.07767
G0 F6000 X110.166 Y105.641
G1 F1200 X109.083 Y104.557 E16.12863
G0 F6000 X108.517 Y104.557
G1 F1200 X109.6 Y105.641 E16.1796
G0 F6000 X109.035 Y105.641
G1 F1200 X107.951 Y104.557 E16.23059
G0 F6000 X107.386 Y104.557
G1 F1200 X108.469 Y105.641 E16.28155
G0 F6000 X107.903 Y105.641
G1 F1200 X106.82 Y104.557 E16.33252
G0 F6000 X106.254 Y104.557
G1 F1200 X107.338 Y105.641 E16.3835
G0 F6000 X106.772 Y105.641
G1 F1200 X105.689 Y104.557 E16.43447
G0 F6000 X105.123 Y104.557
G1 F1200 X106.206 Y105.641 E16.48543
G0 F6000 X105.641 Y105.641
G1 F1200 X104.676 Y104.676 E16.53082
G0 F6000 X104.676 Y105.242
G1 F1200 X105.075 Y105.641 E16.54959
G0 F6000 X105.075 Y105.992
G1 F7500 E10.04959
;MESH:Clip 1.stl
G0 F6000 X105.075 Y106.082
G0 X115.873 Y106.372
G0 X115.873 Y108.728
G0 X115.873 Y111.092
;TYPE:WALL-INNER
G1 F7500 E16.54959
G1 F1200 X104.127 Y111.092 E16.94026
G1 X104.127 Y108.908 E17.0129
G1 X115.873 Y108.908 E17.40358
G1 X115.873 Y111.092 E17.47622
G0 F6000 X116.273 Y111.492
;TYPE:WALL-OUTER
G1 F1200 X103.727 Y111.492 E17.8935
G1 X103.727 Y108.508 E17.99275
G1 X116.273 Y108.508 E18.41003
G1 X116.273 Y111.492 E18.50928
G0 F6000 X116.003 Y111.222
G0 X115.763 Y110.702
G0 X115.483 Y110.702
;TYPE:SKIN
G1 F1200 X104.517 Y110.702 E18.87401
G1 X104.517 Y109.298 E18.92071
G1 X115.483 Y109.298 E19.28544
G1 X115.483 Y110.702 E19.33213
G0 F6000 X115.763 Y110.702
G0 X115.763 Y109.665
G0 X115.322 Y109.665
G1 F1200 X115.114 Y109.458 E19.34189
G0 F6000 X114.549 Y109.458
G1 F1200 X115.322 Y110.231 E19.37825
G0 F6000 X115.066 Y110.541
G1 F1200 X113.983 Y109.458 E19.42919
G0 F6000 X113.417 Y109.458
G1 F1200 X114.501 Y110.541 E19.48016
G0 F6000 X113.935 Y110.541
G1 F1200 X112.852 Y109.458 E19.5311
G0 F6000 X112.286 Y109.458
G1 F1200 X113.369 Y110.541 E19.58204
G0 F6000 X112.804 Y110.541
G1 F1200 X111.72 Y109.458 E19.63301
G0 F6000 X111.155 Y109.458
G1 F1200 X112.238 Y110.541 E19.68395
G0 F6000 X111.672 Y110.541
G1 F1200 X110.589 Y109.458 E19.73489
G0 F6000 X110.023 Y109.458
G1 F1200 X111.106 Y110.541 E19.78583
G0 F6000 X110.541 Y110.541
G1 F1200 X109.458 Y109.458 E19.83677
G0 F6000 X108.892 Y109.458
G1 F1200 X109.975 Y110.541 E19.88771
G0 F6000 X109.409 Y110.541
G1 F1200 X108.326 Y109.458 E19.93865
G0 F6000 X107.76 Y109.458
G1 F1200 X108.844 Y110.541 E19.98962
G0 F6000 X108.278 Y110.541
G1 F1200 X107.195 Y109.458 E20.04056
G0 F6000 X106.629 Y109.458
G1 F1200 X107.712 Y110.541 E20.0915
G0 F6000 X107.147 Y110.541
G1 F1200 X106.063 Y109.458 E20.14246
G0 F6000 X105.498 Y109.458
G1 F1200 X106.581 Y110.541 E20.1934
G0 F6000 X106.015 Y110.541
G1 F1200 X104.932 Y109.458 E20.24434
G0 F6000 X104.676 Y109.767
G1 F1200 X105.45 Y110.541 E20.28075
G0 F6000 X104.884 Y110.541
G1 F1200 X104.676 Y110.333 E20.29054
G0 F6000 X104.327 Y110.333
G1 F7500 E13.79054
;MESH:Clip 1.stl(1)
G0 F6000 X104.237 Y110.333
G0 X104.309 Y110.91
G0 X115.873 Y111.272
G0 X115.873 Y113.628
G0 X115.873 Y115.992
;TYPE:WALL-INNER
G1 F7500 E20.29054
G1 F1200 X104.127 Y115.992 E20.68121
G1 X104.127 Y113.808 E20.75385
G1 X115.873 Y113.808 E21.14452
G1 X115.873 Y115.992 E21.21716
G0 F6000 X116.273 Y116.392
;TYPE:WALL-OUTER
G1 F1200 X103.727 Y116.392 E21.63444
G1 X103.727 Y113.408 E21.73369
G1 X116.273 Y113.408 E22.15097
G1 X116.273 Y116.392 E22.25022
G0 F6000 X116.003 Y116.122
G0 X115.763 Y115.602
G0 X115.483 Y115.602
;TYPE:SKIN
G1 F1200 X104.517 Y115.602 E22.61495
G1 X104.517 Y114.198 E22.66165
G1 X115.483 Y114.198 E23.02638
G1 X115.483 Y115.602 E23.07308
G0 F6000 X115.322 Y114.757
G1 F1200 X114.923 Y114.357 E23.09187
G0 F6000 X114.357 Y114.357
G1 F1200 X115.322 Y115.322 E23.13726
G0 F6000 X114.875 Y115.441
G1 F1200 X113.791 Y114.357 E23.18825
G0 F6000 X113.226 Y114.357
G1 F1200 X114.31 Y115.441 E23.23924
G0 F6000 X113.744 Y115.441
G1 F1200 X112.66 Y114.357 E23.29022
G0 F6000 X112.094 Y114.357
G1 F1200 X113.178 Y115.441 E23.34121
G0 F6000 X112.613 Y115.441
G1 F1200 X111.529 Y114.357 E23.3922
G0 F6000 X110.963 Y114.357
G1 F1200 X112.047 Y115.441 E23.44319
G0 F6000 X111.481 Y115.441
G1 F1200 X110.397 Y114.357 E23.49418
G0 F6000 X109.832 Y114.357
G1 F1200 X110.916 Y115.441 E23.54516
G0 F6000 X110.35 Y115.441
G1 F1200 X109.266 Y114.357 E23.59615
G0 F6000 X108.7 Y114.357
G1 F1200 X109.784 Y115.441 E23.64714
G0 F6000 X109.219 Y115.441
G1 F1200 X108.135 Y114.357 E23.69813
G0 F6000 X107.569 Y114.357
G1 F1200 X108.653 Y115.441 E23.74912
G0 F6000 X108.087 Y115.441
G1 F1200 X107.003 Y114.357 E23.8001
